svgs/regular/square-xmark.svg

<svg xmlns="http://www.w3.org/2000/svg" viewBox="0 0 448 512"><!--! Font Awesome Pro 6.0.0-alpha3 by @fontawesome - https://fontawesome.com License - https://fontawesome.com/license (Commercial License) --><path d="M384 32H64C28.65 32 0 60.65 0 96v320c0 35.35 28.65 64 64 64h320c35.35 0 64-28.65 64-64V96C448 60.65 419.3 32 384 32zM400 416c0 8.822-7.178 16-16 16H64c-8.822 0-16-7.178-16-16V96c0-8.822 7.178-16 16-16h320c8.822 0 16 7.178 16 16V416zM304.1 175c-9.375-9.375-24.56-9.375-33.94 0L224 222.1L176.1 175c-9.375-9.375-24.56-9.375-33.94 0s-9.375 24.56 0 33.94l47.03 47.03L143 303c-9.375 9.375-9.375 24.56 0 33.94c9.373 9.373 24.56 9.381 33.94 0L224 289.9l47.03 47.03c9.373 9.373 24.56 9.381 33.94 0c9.375-9.375 9.375-24.56 0-33.94l-47.03-47.03l47.03-47.03C314.3 199.6 314.3 184.4 304.1 175z"/></svg>

<svg xmlns="http://www.w3.org/2000/svg" viewBox="0 0 448 512"><!-- Font Awesome Pro 6.0.0-alpha2 by @fontawesome - https://fontawesome.com License - https://fontawesome.com/license (Commercial License) --><path d="M384 32H64C28.654 32 0 60.654 0 96V416C0 451.346 28.654 480 64 480H384C419.346 480 448 451.346 448 416V96C448 60.654 419.346 32 384 32ZM400 416C400 424.822 392.822 432 384 432H64C55.178 432 48 424.822 48 416V96C48 87.178 55.178 80 64 80H384C392.822 80 400 87.178 400 96V416ZM304.969 175.031C295.594 165.656 280.406 165.656 271.031 175.031L224 222.062L176.969 175.031C167.594 165.656 152.406 165.656 143.031 175.031S133.656 199.594 143.031 208.969L190.062 255.998L143.031 303.029C133.656 312.404 133.656 327.592 143.031 336.967C152.404 346.34 167.588 346.348 176.969 336.967L224 289.936L271.031 336.967C280.404 346.34 295.588 346.348 304.969 336.967C314.344 327.592 314.344 312.404 304.969 303.029L257.938 255.998L304.969 208.969C314.344 199.594 314.344 184.406 304.969 175.031Z"/></svg>
